svg/color/dram.svg

<svg width="64" height="65" viewBox="0 0 64 65" fill="none" xmlns="http://www.w3.org/2000/svg">
<g clip-path="url(#clip0_11313_5183)">
<rect y="0.303711" width="64" height="64" rx="32" fill="white"/>
<path fill-rule="evenodd" clip-rule="evenodd" d="M32 0.303711C49.6744 0.303711 64 14.6294 64 32.3037C64 49.9781 49.6744 64.3037 32 64.3037C14.3256 64.3037 0 49.9781 0 32.3037C0 14.6294 14.3256 0.303711 32 0.303711Z" fill="white"/>
<path fill-rule="evenodd" clip-rule="evenodd" d="M33.9778 12.304V16.9141H34.5015C34.6288 16.9134 34.7562 16.9125 34.8836 16.9116L34.884 16.9116C36.3863 16.9009 37.8927 16.8902 39.3649 17.2536C45.7275 18.822 49.8023 22.7702 51.2268 29.1645C52.939 36.8422 48.4354 44.4883 40.9735 46.9315C39.4828 47.4207 37.9519 47.6855 36.3864 47.6883C31.6746 47.697 26.9628 47.6959 22.251 47.6948C20.6808 47.6944 19.1105 47.6941 17.5403 47.6941H17.2554L17.3086 47.6029L17.3086 47.6028C17.3601 47.5142 17.4025 47.4414 17.4482 47.3718C17.643 47.074 17.8381 46.7766 18.0332 46.4792L18.0336 46.4786C18.6396 45.5548 19.2453 44.6314 19.8396 43.6998C19.9575 43.5128 20.0324 43.2595 20.0352 43.0379C20.0468 36.8163 20.0468 30.5918 20.0352 24.3702C20.0352 24.0709 20.1245 23.8983 20.3777 23.7371C21.221 23.2027 22.0556 22.6568 22.8908 22.1106L22.8909 22.1105L22.8913 22.1102C23.2388 21.883 23.5863 21.6557 23.9345 21.4292C23.996 21.3895 24.0585 21.3531 24.1336 21.3095L24.1336 21.3095L24.1336 21.3095C24.1781 21.2836 24.2271 21.2552 24.2828 21.222V43.4351H29.7447V42.9775L29.7448 39.8786C29.7452 34.7129 29.7456 29.5473 29.736 24.3817C29.736 24.0623 29.8396 23.8925 30.1015 23.7256C30.9808 23.1662 31.8519 22.5953 32.7235 22.0241L32.7239 22.0238C33.0045 21.8399 33.2852 21.656 33.5663 21.4724C33.6502 21.4171 33.7355 21.3662 33.8378 21.3052C33.8794 21.2804 33.9238 21.254 33.972 21.2249V43.3689C33.9916 43.3852 34.0063 43.3995 34.018 43.4109C34.0373 43.4297 34.0487 43.4408 34.0612 43.4408C37.0627 43.6135 39.9605 43.3171 42.4958 41.4984C45.7678 39.1502 47.4282 35.9444 47.3448 31.9156C47.2383 26.7213 43.2152 22.1457 38.0843 21.317C37.4138 21.2076 36.726 21.1644 36.044 21.1587C33.9969 21.1463 31.9513 21.1487 29.905 21.151H29.9047L29.9025 21.151C29.0846 21.152 28.2665 21.1529 27.4482 21.1529H17.7014H17.2698C17.3002 21.1002 17.3259 21.0536 17.3494 21.0112L17.3494 21.0111C17.3835 20.9494 17.4129 20.8962 17.4453 20.845C17.7176 20.427 17.9902 20.0093 18.2628 19.5916L18.2633 19.5909C18.8087 18.7551 19.3542 17.9193 19.8971 17.081L19.898 17.0795C19.9611 16.982 20.0352 16.8675 20.0352 16.7615C20.0352 15.647 20.0304 14.5309 20.0255 13.4156V13.4156C20.0239 13.0449 20.0223 12.6744 20.0209 12.304H24.2655V16.8853H29.7331V12.304H33.9778ZM29.7331 52.3042C29.7337 52.2012 29.734 52.0982 29.7344 51.9952V51.9951C29.7357 51.5831 29.7371 51.1715 29.7532 50.7617C29.759 50.638 29.8165 50.4653 29.9086 50.4049C31.1198 49.6019 32.3407 48.8111 33.5601 48.0212L33.5614 48.0204L33.8741 47.8178C33.8851 47.8105 33.8996 47.8078 33.9249 47.8032L33.925 47.8032C33.9395 47.8005 33.9576 47.7972 33.9806 47.7919V52.3042H29.736H29.7331ZM20.026 51.8637C20.0244 52.0104 20.0229 52.1572 20.0205 52.3042H20.0233H24.268V47.7948C24.2495 47.7987 24.2343 47.8013 24.2216 47.8034C24.1967 47.8076 24.1815 47.8102 24.1701 47.8178C24.0659 47.8854 23.9616 47.9529 23.8573 48.0205C22.6375 48.8106 21.4162 49.6016 20.2046 50.4049C20.1154 50.4653 20.0579 50.638 20.0521 50.7617C20.0336 51.1298 20.0298 51.4965 20.026 51.8637Z" fill="black"/>
</g>
<rect x="0.5" y="0.803711" width="63" height="63" rx="31.5" stroke="#070B14" stroke-opacity="0.15"/>
<defs>
<clipPath id="clip0_11313_5183">
<rect y="0.303711" width="64" height="64" rx="32" fill="white"/>
</clipPath>
</defs>
</svg>

<svg xmlns="http://www.w3.org/2000/svg" width="64" height="65" fill="none" viewBox="0 0 64 65"><g clip-path="url(#dram_svg-a)"><rect width="64" height="64" y=".304" fill="#fff" rx="32"/><path fill="#fff" fill-rule="evenodd" d="M32 .304c17.674 0 32 14.325 32 32 0 17.674-14.326 32-32 32s-32-14.326-32-32c0-17.675 14.326-32 32-32" clip-rule="evenodd"/><path fill="#000" fill-rule="evenodd" d="M33.978 12.304v4.61h.523l.383-.002c1.502-.011 3.009-.022 4.48.342 6.364 1.568 10.438 5.516 11.863 11.91 1.712 7.678-2.792 15.324-10.253 17.768a14.8 14.8 0 0 1-4.588.756c-4.711.009-9.423.008-14.135.007h-4.996l.054-.092a5 5 0 0 1 .14-.231l.584-.893a254 254 0 0 0 1.807-2.78 1.35 1.35 0 0 0 .195-.661q.018-9.334 0-18.668c0-.3.09-.472.343-.633.843-.534 1.678-1.08 2.513-1.626l1.044-.682a5 5 0 0 1 .199-.12l.149-.087v22.213h5.462V39.88c0-5.166 0-10.332-.009-15.497 0-.32.104-.49.366-.656.879-.56 1.75-1.13 2.622-1.702l.842-.552c.084-.055.17-.106.272-.167l.134-.08V43.37q.029.024.046.042c.02.019.03.03.043.03 3.002.172 5.9-.124 8.435-1.943 3.272-2.348 4.932-5.554 4.849-9.582-.107-5.195-4.13-9.77-9.26-10.599a13 13 0 0 0-2.041-.158c-2.047-.013-4.093-.01-6.139-.008h-.003l-2.454.002H17.27l.08-.142q.049-.091.095-.166l.818-1.253v-.001q.82-1.253 1.634-2.51l.001-.002c.063-.097.137-.212.137-.317q-.001-1.673-.01-3.346l-.004-1.112h4.244v4.581h5.468v-4.581zm-4.245 40 .001-.309a34 34 0 0 1 .02-1.233c.005-.124.063-.297.155-.357 1.21-.803 2.432-1.594 3.651-2.384h.001l.313-.203a.1.1 0 0 1 .05-.015h.001l.056-.011v4.512zm-9.707-.44-.006.44h4.248v-4.51l-.046.01a.1.1 0 0 0-.052.014l-.313.203c-1.22.79-2.44 1.58-3.652 2.384-.09.06-.147.233-.153.357-.018.368-.022.734-.026 1.102" clip-rule="evenodd"/></g><rect width="63" height="63" x=".5" y=".804" stroke="#070B14" stroke-opacity=".15" rx="31.5"/><defs><clipPath id="dram_svg-a"><rect width="64" height="64" y=".304" fill="#fff" rx="32"/></clipPath></defs></svg>
